dist/img/svg/ic_tw.svg

<svg width="16" height="13" viewBox="0 0 16 13"  xmlns="http://www.w3.org/2000/svg">
<path d="M16 1.54315C15.5465 2.20643 14.9983 2.77157 14.3553 3.23858C14.3621 3.33333 14.3655 3.47546 14.3655 3.66497C14.3655 4.54484 14.2369 5.4247 13.9797 6.30457C13.7225 7.17767 13.3299 8.01692 12.802 8.82234C12.2809 9.62775 11.6582 10.3418 10.934 10.9645C10.2098 11.5804 9.33672 12.0744 8.31472 12.4467C7.29272 12.8122 6.19966 12.9949 5.03553 12.9949C3.20135 12.9949 1.52284 12.5042 0 11.5228C0.236887 11.5499 0.500846 11.5635 0.791878 11.5635C2.31472 11.5635 3.67174 11.0964 4.86294 10.1624C4.15228 10.1489 3.51607 9.93232 2.95431 9.51269C2.39255 9.08629 2.00677 8.54484 1.79695 7.88832C2.0203 7.92217 2.22673 7.93909 2.41624 7.93909C2.70728 7.93909 2.99492 7.90186 3.27919 7.82741C2.52115 7.67174 1.89171 7.29611 1.39086 6.70051C0.896785 6.09814 0.649746 5.40101 0.649746 4.60914V4.56853C1.10998 4.82572 1.60406 4.96447 2.13198 4.98477C1.68528 4.68697 1.32995 4.2978 1.06599 3.81726C0.80203 3.33672 0.670051 2.81557 0.670051 2.25381C0.670051 1.65821 0.818951 1.1066 1.11675 0.598985C1.9357 1.60744 2.93063 2.41624 4.10152 3.02538C5.27919 3.62775 6.53807 3.96277 7.87817 4.03046C7.82403 3.77326 7.79695 3.52284 7.79695 3.27919C7.79695 2.37225 8.11506 1.60068 8.75127 0.964467C9.39425 0.321489 10.1692 0 11.0761 0C12.0237 0 12.8223 0.345178 13.4721 1.03553C14.2098 0.893401 14.9036 0.629442 15.5533 0.243655C15.3029 1.022 14.8223 1.62437 14.1117 2.05076C14.7411 1.98308 15.3706 1.81387 16 1.54315Z" />
</svg>

<svg width="16" height="13" viewBox="0 0 16 13" xmlns="http://www.w3.org/2000/svg"><path d="M16 1.543a6.872 6.872 0 01-1.645 1.696 9.368 9.368 0 01-.376 3.066 9.453 9.453 0 01-1.177 2.517 9.91 9.91 0 01-1.868 2.143c-.724.615-1.597 1.11-2.62 1.482a9.666 9.666 0 01-3.278.548A9.106 9.106 0 010 11.523c.237.027.5.04.792.04a6.42 6.42 0 004.07-1.4 3.214 3.214 0 01-1.908-.65 3.235 3.235 0 01-1.157-1.625c.223.034.43.051.62.051.29 0 .578-.037.862-.112a3.259 3.259 0 01-1.888-1.126A3.201 3.201 0 01.65 4.609v-.04c.46.257.954.395 1.482.416a3.275 3.275 0 01-1.066-1.168A3.195 3.195 0 01.67 2.254c0-.596.149-1.147.447-1.655a9.373 9.373 0 002.985 2.426A9.22 9.22 0 007.878 4.03a3.643 3.643 0 01-.081-.75c0-.908.318-1.68.954-2.316A3.169 3.169 0 0111.076 0a3.16 3.16 0 012.396 1.036 6.43 6.43 0 002.081-.792 3.184 3.184 0 01-1.441 1.807A6.534 6.534 0 0016 1.543z"/></svg>
